!!! OTL: Berkowitz157
!!! Chapter: 1
!!! Section: I
!!! Page: 35
!!! Mode: 
!!! Encoder: DJB
**kern
*staff1
*I"Piano
=1-
*clefF4
*k[b-e-]
*B-:
*M3/4
4.B-\
8B-\
4B-\
=2
4c\
4B-\
4G\
=3
4F\
4r
4d\
=4
4G\
4r
4A\
=5
4c\
4B-\
4A\
=6
4c\
4B-\
4G\
=7
4.F\
8G\
8F\L
8E-\J
=8
4F\
4r
4d\
=9
4.e-\
8d\
8c\L
8B-\J
=10
4A\
4r
4c\
=11
!!linebreak:original
4.d\
8c\
8B-\L
8A\J
=12
4G\
4r
4e-\
=13
4.d\
8c\
4B-\
=14
2G\
4F\
=15
4.c\
8d\
8c\L
8d\J
=16
2.B-\
==
*-
